!!!SOCIAL_FUNCTION:	songs of war
!!!PDT:	1918

Specific Region: Dakotas, Minnesota, Montana, Nebraska
!!!REG: Dakotas and Montana
!!!LING_GROUP: Siouan
!!!LANG: Tone
!!!OTL@ENG: Those Are Not My Interest
!!!ONM: No. 125a
**kern
*Imale
*clefF4
*M3/4
*MM96
8A
8A
=1
4e
4e
16d
16e
16d
16e
=2||
*M2/4
8c
8c
8d
8c
=3
8c
8c
8A
8A
=4
4A
16e
16d
16e
16d
=5||
*M5/8
4c
8e
8c
8A
=6
8G
8G
8G
8E
8E
=7||
*M2/4
8G
8G
8A
8A
=8
8A
8G
8G
8G
=9
8G
8E
4E
=10
8C
8C
4C
=11
2AA
=12
2AA
=13
4AA
8A
8A
=14||
*M3/4
4e
4e
8d
(16e
16d)
=15
8c
8c
2c
=16||
*M2/4
8A
8A
4A
=17
(16e
16d)
(16e
16d)
8c
8c
=18||
*M3/8
8e
8c
8A
=19||
*M5/8
8G
8G
8G
8E
8E
=20||
*M2/4
8G
8G
16c
8.A
=21
8.A
16G
8G
8E
=22
8E
8E
4C
=23
8C
8C
4C
=24
2AA
=25
4AA
4r
==
*-
!!!CNT: Native American -- Sioux
!!!MRD: 1911/07//-1914///
!!!OCL: Frances Densmore
!!!YOR1: Teton Sioux Music, Bulletin 61,
!!!YOR2: Bureau of American Ethnology, Smithsonian Institution
!!!PPR: Government Printing Office
!!!PPP: Washington, D.C.
!!!PDT: 1918///
!!!ENC: Craig Stuart Sapp
!!!END: 2002/03/25/
!!!EEV: 2002/03/31/
!!!AGN: War Song/Song of a Typical War Expedition
!!!MPN@@SIO: Waha'chungka-nong'pa
!!!MPN@ENG: Two Shields
!!!TXO: Teton Sioux
!!!MLC: Standing Rock Reservation, South Dakota, United States of America
!!!ARL: 45.9/-100.7#
!!!catalog: Catalogue No. 528
!!!PPG: 334
!!!EFL: 126/245
!!!VTS: 897014951
